X:110
T:Aires de Pontevedra
A:Galicia
M:C
O:Spain
Z:Richard Robinson 
%%TUNEURL: http://www.leeds.ac.uk/music/Info/RRTuneBk/gettune/000007d2.html
%%ID:000007d2
K:E min
EF|"G"GFGE "D"FDEF|"G"GFGF "D"D2EF| \
"G"GFGE "D"FDEF|                    \
M:6/4
"G"GFGE "D"D6AB| \
M:2/4
L:1/8
"C"c2 ce|dc BA|GF GA|"A"G2 G>e|             \
dc BA| GF GA|"D"F2 F>e|dc BA|GF GA|"A"E2E2| \
"D"FA FD|FA FD|"A"EG EG|"D"E4::             \
M:C
K:D
A2|                           \
"D"d2A2 F2GA|"G"BAGF "A"E3A|  \
"G"BAGF E2FG|"A"AGFE "D"D2A2| \
"D"d2A2 F2GA|"G"BAGF "A"E3F|  \
"G"GFGA BAFD|"A"AGFE "D"D2 :|
